markup/src/img/icon-06.svg

<svg width="30" height="37" viewBox="0 0 30 37" fill="none" xmlns="http://www.w3.org/2000/svg">
<path d="M26.9101 37H10.2294C8.52546 37 7.13944 35.6294 7.13944 33.9445V28.1152C7.13944 27.8181 7.38369 27.5765 7.68416 27.5765C7.98462 27.5765 8.22887 27.8181 8.22887 28.1152V33.9445C8.22887 35.0371 9.12639 35.9246 10.2313 35.9246H26.912C28.015 35.9246 28.9144 35.0371 28.9144 33.9445V3.05937C28.9144 1.96482 28.015 1.07538 26.9081 1.07538H10.2333C9.12639 1.07538 8.22693 1.96482 8.22693 3.05937V8.89633C8.22693 9.19345 7.98268 9.43498 7.68222 9.43498C7.38175 9.43498 7.1375 9.19345 7.1375 8.89633V3.05937C7.1375 1.3725 8.52546 0 10.2313 0H26.9062C28.612 0 30 1.3725 30 3.05937V33.9464C30 35.6294 28.614 37 26.9101 37Z" fill="#40AC6C"/>
<path d="M13.2573 26.0967H2.10907C0.945981 26.0967 0 25.1612 0 24.0111V12.987C0 11.8369 0.945981 10.9014 2.10907 10.9014H13.2573C14.4204 10.9014 15.3664 11.8369 15.3664 12.987V24.0111C15.3664 25.1612 14.4204 26.0967 13.2573 26.0967ZM2.10907 11.9787C1.54691 11.9787 1.08943 12.4311 1.08943 12.987V24.0111C1.08943 24.567 1.54691 25.0194 2.10907 25.0194H13.2573C13.8195 25.0194 14.2769 24.567 14.2769 24.0111V12.987C14.2769 12.4311 13.8195 11.9787 13.2573 11.9787H2.10907Z" fill="#40AC6C"/>
<path d="M21.0016 33.5534H16.136C15.8355 33.5534 15.5912 33.3119 15.5912 33.0148C15.5912 32.7176 15.8355 32.4761 16.136 32.4761H21.0016C21.302 32.4761 21.5463 32.7176 21.5463 33.0148C21.5463 33.3119 21.302 33.5534 21.0016 33.5534Z" fill="#40AC6C"/>
<path d="M10.177 22.4143H5.18739C4.52443 22.4143 3.98553 21.8814 3.98553 21.2258V17.8214C3.98553 17.1658 4.52443 16.6329 5.18739 16.6329H10.177C10.84 16.6329 11.3789 17.1658 11.3789 17.8214V21.2258C11.3789 21.8814 10.84 22.4143 10.177 22.4143ZM5.18739 17.7102C5.12536 17.7102 5.07302 17.7601 5.07302 17.8233V21.2278C5.07302 21.2891 5.12342 21.3408 5.18739 21.3408H10.177C10.2391 21.3408 10.2914 21.291 10.2914 21.2278V17.8214C10.2914 17.7601 10.241 17.7083 10.177 17.7083L5.18739 17.7102Z" fill="#40AC6C"/>
<path d="M9.28922 17.4285C8.98876 17.4285 8.74451 17.1869 8.74451 16.8898C8.74451 16.3109 8.26764 15.8393 7.68222 15.8393C7.0968 15.8393 6.61993 16.3109 6.61993 16.8898C6.61993 17.1869 6.37568 17.4285 6.07521 17.4285C5.77475 17.4285 5.5305 17.1869 5.5305 16.8898C5.5305 15.7167 6.49586 14.764 7.68028 14.764C8.86663 14.764 9.83006 15.7167 9.83006 16.8898C9.832 17.1888 9.58969 17.4285 9.28922 17.4285Z" fill="#40AC6C"/>
</svg>

<svg width="30" height="37" fill="none" xmlns="http://www.w3.org/2000/svg"><path d="M26.91 37H10.23c-1.705 0-3.09-1.37-3.09-3.056v-5.829c0-.297.244-.538.544-.538.3 0 .545.241.545.538v5.83c0 1.092.897 1.98 2.002 1.98h16.681c1.103 0 2.002-.888 2.002-1.98V3.058a1.997 1.997 0 0 0-2.006-1.984H10.233c-1.107 0-2.006.89-2.006 1.984v5.837a.542.542 0 0 1-.545.539.542.542 0 0 1-.545-.539V3.06C7.138 1.372 8.526 0 10.232 0h16.675C28.612 0 30 1.373 30 3.06v30.886C30 35.63 28.614 37 26.91 37z" fill="#40AC6C"/><path d="M13.257 26.097H2.11C.946 26.097 0 25.16 0 24.01V12.987c0-1.15.946-2.086 2.11-2.086h11.147c1.163 0 2.11.936 2.11 2.086v11.024c0 1.15-.947 2.086-2.11 2.086zM2.11 11.979c-.562 0-1.02.452-1.02 1.008v11.024c0 .556.458 1.008 1.02 1.008h11.148c.563 0 1.02-.452 1.02-1.008V12.987c0-.556-.457-1.008-1.02-1.008H2.11zm18.892 21.574h-4.866a.542.542 0 0 1-.545-.538c0-.297.245-.539.545-.539h4.866c.3 0 .544.242.544.539a.542.542 0 0 1-.544.538z" fill="#40AC6C"/><path d="M10.177 22.414h-4.99a1.196 1.196 0 0 1-1.201-1.188V17.82c0-.655.538-1.188 1.201-1.188h4.99c.663 0 1.202.533 1.202 1.188v3.405c0 .655-.539 1.188-1.202 1.188zm-4.99-4.704a.114.114 0 0 0-.114.113v3.405c0 .061.05.113.114.113h4.99c.062 0 .114-.05.114-.113V17.82a.114.114 0 0 0-.114-.113l-4.99.002z" fill="#40AC6C"/><path d="M9.29 17.428a.542.542 0 0 1-.545-.538c0-.58-.477-1.05-1.063-1.05-.585 0-1.062.47-1.062 1.05a.542.542 0 0 1-.545.538.542.542 0 0 1-.545-.538c0-1.173.966-2.126 2.15-2.126 1.187 0 2.15.953 2.15 2.126a.536.536 0 0 1-.54.538z" fill="#40AC6C"/></svg>
